!!!!SEGMENT: Mou2012-Ave_Maria_gratia_plena.krn
!!!id: Mou2012
!!!AGN: Motet
!!!SCT: Sherr (1989)
!!!voices: 4
!!!COM: Jean Mouton
!!!OTL: Ave Maria gratia plena
**kern	**kern	**kern	**kern
*part4	*part3	*part2	*part1
*staff4	*staff3	*staff2	*staff1
*I"Bassus	*I"Tenor	*I"Altus	*I"Superius
*I'B	*I'T	*I'A	*I'S
*clefF4	*clefGv2	*clefGv2	*clefG2
*k[]	*k[]	*k[]	*k[]
*C:	*C:	*C:	*C:
*M2/1	*M2/1	*M2/1	*M2/1
*met(C|)	*met(C|)	*met(C|)	*met(C|)
!!section: Prima pars: Ave Maria gratia plena
!!!OMD: Prima pars: Ave Maria gratia plena
=1	=1	=1	=1
0A	0r	0r	0e
=2	=2	=2	=2
1G	0r	0B	1g
1G	.	.	1g
=3	=3	=3	=3
0F	0A	1c	1.a
.	.	1d	.
.	.	.	4g
.	.	.	4f
=4	=4	=4	=4
0E	1B	0e	0g
.	1B	.	.
=5	=5	=5	=5
1r	0c	1A	1.e
1A	.	1r	.
.	.	.	2f
=6	=6	=6	=6
1G	0d	1.B	1g
1G	.	.	1g
.	.	2B	.
=7	=7	=7	=7
0F	1r	1c	0a
.	1A	1d	.
=8	=8	=8	=8
1E	1B	1e	1r
1G	1B	1r	1d
=9	=9	=9	=9
2F	0c	1A	1f
2F	.	.	.
1E	.	2G	2.g
.	.	2G	.
.	.	.	4a
=10	=10	=10	=10
1D	1d	1F	2b-i
.	.	.	1a
1r	1B	1E	.
.	.	.	[2g
=11	=11	=11	=11
0r	2c	1r	2g]
.	2c	.	4f
.	.	.	4e
.	1d	1D	2.f
.	.	.	4e
=12	=12	=12	=12
1r	1e	2.A	2c
.	.	.	2.cc
.	.	4B	.
[1C	1r	4c	.
.	.	4d	4b
.	.	[2e	2g
=13	=13	=13	=13
2C]	0r	2e]	2cc
2D	.	2d	2.b
1F	.	2c	.
.	.	.	4a
.	.	4B	[2a
.	.	4A	.
=14	=14	=14	=14
1E	1r	1B	2a]
.	.	.	2g#i
1D	[1f	2r	1a
.	.	2A	.
=15	=15	=15	=15
0r	2f]	2B	2r
.	2e	2c	2g
.	1c	1A	2a
.	.	.	[2cc
=16	=16	=16	=16
1r	1d	1.G	2cc]
.	.	.	2b
[1C	1e	.	1cc
.	.	2A	.
=17	=17	=17	=17
2C]	0r	2c	0r
2D	.	2.B	.
1F	.	.	.
.	.	4A	.
.	.	[2d	.
=18	=18	=18	=18
1E	1r	2d]	2.g
.	.	2c	.
.	.	.	4a
1D	[1f	2d	2b
.	.	2A	[2a
=19	=19	=19	=19
1A	2f]	2.c	2a]
.	2e	.	4g
.	.	4d	4f
2A	1c	2e	2.e
2A	.	2c	.
.	.	.	4f
=20	=20	=20	=20
2G	1d	2B	2g
2F	.	2A	1a
1E	1e	1B	.
.	.	.	2g#i
=21	=21	=21	=21
1r	1A	2r	1a
.	.	2c	.
1F	2A	1d	2r
.	2A	.	2a
=22	=22	=22	=22
1E	2B	1e	1g
.	2c	.	.
1D	1d	2A	1f
.	.	2B	.
=23	=23	=23	=23
0A	1r	2.c	1e
.	.	4d	.
.	1c	1e	1r
=24	=24	=24	=24
0r	1d	1r	1f
.	1e	[1c	1g
=25	=25	=25	=25
1r	0A	1c]	1.a
1F	.	1d	.
.	.	.	4g
.	.	.	4f
=26	=26	=26	=26
1E	0r	1e	2.g
.	.	.	4a
1D	.	2.A	1f
.	.	4B	.
=27	=27	=27	=27
1A	1r	4c	2e
.	.	4d	.
.	.	2.c	2.a
2F	1c	.	.
.	.	4B	4g
2E	.	2G	[2g
=28	=28	=28	=28
1D	1d	1A	2g]
.	.	.	2f
1C	1e	1r	1g
=29	=29	=29	=29
1D	1A	1.F	2r
.	.	.	2a
1r	2c	.	2a
.	2d	4E	2a
.	.	4D	.
=30	=30	=30	=30
0r	1e	2.A	1.cc
.	.	4G	.
.	1f	2A	.
.	.	2B	4b
.	.	.	4a
=31	=31	=31	=31
0C	1e	2.c	1g
.	.	4B	.
.	1r	2G	1e
.	.	[2A	.
=32	=32	=32	=32
1D	0r	4A]	1.f
.	.	4G	.
.	.	2B	.
[1F	.	1A	.
.	.	.	2e
=33	=33	=33	=33
2F]	0f	1r	2d
2E	.	.	1c
1D	.	1F	.
.	.	.	2B
=34	=34	=34	=34
0C	1e	1.G	1c
.	[1c	.	1g
.	.	2E	.
=35	=35	=35	=35
1r	2c]	1F	1a
.	2d	.	.
1C	1e	1G	[1cc
=36	=36	=36	=36
1D	0f	2r	2cc]
.	.	1d	2b
[1F	.	.	[1a
.	.	2c	.
=37	=37	=37	=37
2F]	1r	2d	2a]
2E	.	2G	2g
1D	1f	1d	2a
.	.	.	2b
=38	=38	=38	=38
1.A	1e	2.c	1.cc
.	.	4d	.
.	[1c	1e	.
2G	.	.	2b
=39	=39	=39	=39
1F	2c]	1A	2a
.	2d	.	4g
.	.	.	4f
1E	1e	1B	1g
=40	=40	=40	=40
1.F	[0Al	2r	1.a
.	.	1c	.
2E	.	2c	2g
=41	=41	=41	=41
2D	0A_	2d	2f
2C	.	2e	2e
2.F	.	1c	[1f
4E	.	.	.
=42	=42	=42	=42
2D	0A_	1r	2f]
2C	.	.	2e
1D	.	1F	1d
=43	=43	=43	=43
[0AAl	0A_	2F	[0cl
.	.	2E	.
.	.	1F	.
=44	=44	=44	=44
00AA]	00A]	00El	00c]
==	==	==	==
*-	*-	*-	*-
!!!system-decoration: [*]
!!!RDF**kern: i = editorial accidental
!!!RDF**kern: l = terminal long
!!!ENC: Benjamin Ory
!!!END: 2021/5/21
!!!EED: Benjamin Ory
!!!EEV: 2021/05/21
!!!YEC: Copyright 2021 Benjamin Ory, All Rights Reserved
!!!ONB: Translated from MusicXML on 2021/05/21
